!! 00000] TT[WS
!!!OTL: Tiantian jianmian tiantian xiang
!!!ARE: Asia, China, Shanxi Hequ
!! Ethnic Group: Han
!! WII, 32 (2)
!!!SCT: J0443
!!!YEM: Copyright 1995, estate of Helmut Schaffrath.
**kern
*ICvox
*Ivox
*M2/4
*k[f#c#]
*D:
{12r
12b
12b
12b
12a
12f#
=1
16f#
16e
4e
8e
=2
4ee
8dd
8ee
=3
2b}
=4
{12r
12b
12b
12b
12a
12f#
=5
16f#
16e
4e
8e
=6
4a
8f#
8e
=7
2ee}
==
!!!AGN: Shange, Shanqu. Qingge
!!!ONB: ESAC (Essen Associative Code) Database: CHINA
!!!AMT: simple duple
!!!AIN: vox
!!!EED: Helmut Schaffrath
!!!EEV: 1.0
*-
